X: 25489
T: Marcus Hernon's Air
R: waltz
M: 3/4
K: Fmajor
de|f4 g>f|e4 f>e|d3 e c>c|c3 c dc/B/|
A2 a2 a/g/f/a/|g3 e cG|Bc A2 AB|A4 GA|
B3 c A>G|A3 c A>G|F2 f2 ec|d4 fg|
a4 a/g/f/a/|g3 f dc|d4 z2|de fe fg|
a4 a/g/f/a/|g3 z a>g|f3 e c>c|c2 z c dc/B/|
A2 a2 a/g/f/a/|g3 e cG|Bc A2 AB|A4||

